X: 454
T: Daji ge
%%abc-version 2.0
%%abcx-abcm2ps-target-version 5.9.1 (29 Sep 2008)
%%abc-creator hum2abc beta
%%abcx-conversion-date 2013/10/02 07:52:30
%%abc-edited-by Helmut Schaffrath
%%humdrum-veritas 2937768439
%%humdrum-veritas-data 822024565
%%continueall 1
%%barnumbers 0
L: 1/16
M: 2/4
K: Bb
c2> d2 c2 B G [I:setbarnb 1]| 
F4F4 | 
B2> c2 B2 A G | 
F4F4 | 
c2 d2 c2 d d | 
B2 A GF4 | 
B2 c c B2 A G | 
F4F4 | 
d4d2 G2 | 
F4F4 | 
F2> G2 B2 A G | 
F4F4 | 
c2 d d d2 c d | 
B2 A GF4 | 
B2 A G c2 z2 | 
F2> G2 B2 A G | 
F4f4 | 
d4d2 G2 | 
F4F4 | 
F2> G2 B2 A G | 
F4F4 |]  



